X: 40846
T: Tramps And Hawkers
R: waltz
M: 3/4
K: Dmajor
D/E/|F2A FED|E2F D2B,|A,2B, D2E|D3 z2F/G/|
A2A FGA|BdB A2F/E/|D2E FED|B,3 z2G|
A2A AGA|BdB A2F/E/|D2E FED|B,3 z2D/E/|
F2A FED|E2F D2B,|A,2B, D2E|D3- Dz2||

